X:1
T:Pohlsk dans 
T:(Totakt-pols, nr. JMB-4)
S:efter Jens Millersen Bjerg
R:Totakt-pols
O:Husby, Ringköbing amt, Danmark
N:Fler låtar från Danmark...
M:2/4
L:1/8
K:D
|: a2 a2 | a2 z f | ggeg | (f1/2e1/2)(f1/2g1/2) fd | a2 a2 | a2 z f | ggec | d2 d2 :|
|: e3 g | f3 a | (ag)(gf) | f2 e2 | a2 a2 | a2 z f | ggec | d2 d2 :|

